X:1
T:Title
%%score { ( 1 3 ) | ( 2 4 ) }
L:1/8
M:4/4
K:Db
V:1 treble nm="Grand Piano"
V:3 treble 
V:2 bass 
V:4 bass 
V:1
 z4 z2[Q:1/4=100] [DF]>[EG] | [FA]3 [FA] [GB]2 [FA]2 | [FA] [Fd]3 z2 [Gc]>[CGB] | %3
 [DFA] [DF]2 [DFA] [GB] A2 F |[M:3/4] E6 |[M:1/4] F>[EG] |[M:4/4] [FA]3 [FA] [GB]2 [FA]2 | %7
 [FA] [Fd]3 z2 c>B | A F2 A .[CEB]2 [CA]2 |[M:3/4] D6 |[M:1/4] A>A |[M:4/4] d6 z2 | d6 z2 | B6 z2 | %14
 c4 z4 | d6 z2 | z2 G>G G2 e>e | d3 A [DGB]2 [EGc]2 |[M:3/4] d6 |] %19
V:2
 z4 z2 [D,A,]>[D,A,] | [D,D]3 [D,D] [D,D]2 [D,D]2 | [D,D] [D,A,]3 z2 [G,B,]>G, | %3
 z A,2 D, z F2 [F,A,D] |[M:3/4] [A,C]6 |[M:1/4] [D,A,D]>[D,A,] | %6
[M:4/4] [D,D]3 [D,D] [D,D]2 [D,D]2 | [D,D] [D,A,]3 z2[K:treble] [G,B,G]>[G,CG] | %8
 [A,DF] [A,D]2 [A,DF][K:bass] z A, [A,,F,]2 |[M:3/4] [D,F,]6 |[M:1/4] z2 | %11
[M:4/4] z2 [D,A,]>[D,A,] [D,A,]A,F,A, | [D,A,]2 [G,B,]>[G,B,] [D,A,]2 z2 | %13
 z2 [G,D]>[G,D] [G,D][G,DG][G,E][E,E] | [A,E]2 [A,E]>[A,E] [A,CG]2 z2 | %15
 z2[K:bass] [D,A,]>[D,A,] [D,A,]A,F,D, | [G,DG]2 [G,D]>[G,D] [G,D]2[K:treble] [G,B,G]>[G,B,G] | %17
 [A,F]3 [A,DF][K:bass] A,,2 A,,2 |[M:3/4] z2 B,>B, A,2 |] %19
V:3
 x8 | x8 | x8 | z4 D4 |[M:3/4] x6 |[M:1/4] x2 |[M:4/4] x8 | x8 | x8 |[M:3/4] x6 |[M:1/4] x2 | %11
[M:4/4] z2 F>F FAFA | F2 G>G F2 A>A | z2 G>G GB[=Gc][Gd] | z2 A>A B2 A>A | z2 F>F FAF[DFA] | %16
 B6 z2 | x8 |[M:3/4] [DF]2 G>G F2 |] %19
V:4
 x8 | x8 | x8 | D,4 D,4 |[M:3/4] x6 |[M:1/4] x2 |[M:4/4] x8 | x6[K:treble] x2 | %8
 z4[K:bass] A,,2 z2 |[M:3/4] x6 |[M:1/4] x2 |[M:4/4] x8 | x8 | x8 | x8 | x2[K:bass] x6 | %16
 x6[K:treble] x2 | x4[K:bass] x4 |[M:3/4] D,6 |] %19

